X:1
T:Title
%%score { ( 1 3 ) | ( 2 4 ) }
L:1/8
Q:1/4=100
M:4/4
K:Bb
V:1 treble nm="Grand Piano"
V:3 treble 
V:2 bass 
V:4 bass 
V:1
 [DFB]2 D>E F2 G2 | G4 F4 | F2 G>D F2 G>D |[M:9/8] F6- F z z |[M:4/4] [A,EF]2 [CEA]>[Ge] d2 c2 | %5
w: A.~A.~DuBois * * * *|||||
 D2 [DF]>[Dd] [Dc]2 [DB]2 | [CA]2 [Fc]>[FA] [=EA]2 [EG]2 | F8 | F2 A>e d2 c2 | [DF]6 z2 | %10
w: |||||
 [B,EG]3 [B,FA] [B,GB]2 [Gc]2 | [^Fd]6 de | [Ff]3 [Fe] [Fd]2 .[B,FB]2 | [^Fd]3 [Fc] [GB]2 AG | %14
w: ||||
 F2 d2 c3 [DB] | [DB]6 z2 | [DF]2 .[B,DF]2 .[F,DF]B[DA][DG] | [EA]2 [A,E]2 [A,E]4 | %18
w: ||||
 [A,E]>F [A,E]>F [A,E][A,EA][A,EG][A,EF] | [DG]2 [B,D]2 [B,D]4 | [DF][Fd][Ec][DB] [FA]2 [EG]2 | %21
w: |||
 [EG][Ge][Gd][Gc] BAGF | [B,DB]DEF G[Ge][Gd][Gc] |[M:5/4] [FB]2 [EA]2 [DB]6 |] %24
w: |||
V:2
 [B,,F,B,]2 D,>E, F,2 G,2 | G,4 F,4 | F,2 G,>D, F,2 G,>D, |[M:9/8] F,6- F, z z | %4
[M:4/4] F,2 F,>[F,C] [F,A,F]2 [F,A,E]2 | [B,,B,]2 [B,,B,]>[B,,B,] [B,,F,]2 [B,,F,]2 | %6
 [C,F,]2 [C,A,]>[C,C] [C,C]2 [C,B,]2 | [A,C]2 B,2 C4 | [F,A,E]2 [F,CE]>[F,CG] [F,A,F]2 [F,A,E]2 | %9
 z2 F,2 B,2 B,,2 | E,3 E, E,2 [E,A,]2 | [D,A,]6 B,-[C,B,] | [D,B,]3 [F,A,] B,2 z[K:treble] c | %13
 [D,A,]3 [D,D] [E,G,]2 [=E,B,_D]2 | [F,B,D]2 [F,B,F]2 [F,A,E]3 [B,,F,] | [B,,F,B,]6 z2 | %16
 .[B,,B,]>G .B,,>G .B,,D .[B,,F,]2 | .[C,F,]2 .[C,F,]2 [C,F,]4 | %18
 [F,,F,]2 [F,,F,]2 [F,,F,]2 [F,,F,]2 | [B,,F,B,]2 [B,,F,]2 [B,,F,]4 | %20
 [B,,B,][B,,B,][B,,B,][B,,B,] [E,B,]2 [E,B,]2 | %21
 [E,B,][C,C][D,=B,][E,C] [F,CE][F,CE][F,B,E][F,A,E] | B,,D,E,F, G,[C,C][D,=B,][E,C] | %23
[M:5/4] [F,D]2 [F,C]2 [B,,F,B,]6 |] %24
V:3
 x8 | x8 | x8 |[M:9/8] z2 [B,D]- [B,D] [A,C]2- [A,C] z z |[M:4/4] x8 | x8 | x8 | z2 D2 E4 | x8 | %9
 B,2 z2 z2 [B,D^F]2 | x8 | z4 z2 =F2 | x8 | x8 | x8 | x8 | x8 | x8 | x8 | x8 | x8 | x8 | x8 | %23
[M:5/4] x10 |] %24
V:4
 x8 | x8 | x8 |[M:9/8] z2 B,,- B,, F,,2- F,, z z |[M:4/4] x8 | x8 | x8 | F,8 | x8 | B,,6 z2 | x8 | %11
 z4 z2 .B,,2 | z4 z2 D,2[K:treble] | x8 | x8 | x8 | x8 | x8 | x8 | x8 | x8 | x8 | x8 | %23
[M:5/4] x10 |] %24

